img/surfbot-icon2.svg

<svg width="49" height="39" viewBox="0 0 49 39" fill="none" xmlns="http://www.w3.org/2000/svg">
<g clip-path="url(#clip0_41_7)">
<path fill-rule="evenodd" clip-rule="evenodd" d="M9.63967 1.09963C10.1612 0.72672 10.8618 0.72672 11.3834 1.09963C17.8802 5.74489 20.8255 11.3137 21.0111 19.3035C21.0968 23.1187 20.7299 26.612 19.6133 29.6297C18.4681 32.6492 16.4315 35.439 13.4332 37.7948C13.0549 38.0897 12.5585 38.1858 12.0976 38.0534C11.1793 37.7895 11.023 36.6999 10.5115 36.0208C9.99974 36.7003 9.84439 37.7893 8.9254 38.0534C8.46452 38.1858 7.96817 38.0897 7.58987 37.7948C4.5915 35.439 2.55499 32.6492 1.40971 29.6297C0.293102 26.612 -0.0737632 23.1187 0.0119281 19.3035C0.197553 11.3137 3.1428 5.74489 9.63967 1.09963ZM12.9984 34.3534C14.8746 32.6267 16.0052 30.7424 16.8041 28.5759C17.8092 25.9265 18.0991 23.0004 18.0119 19.3733C17.8672 13.1432 16.4108 9.08885 11.9984 5.32445V16.3354C13.7236 16.7798 14.4984 18.4737 14.4984 20.3394C14.4984 22.2051 13.7236 23.899 11.9984 24.3434V33.3524C11.9984 33.3524 12.8001 34.0922 12.9984 34.3534ZM7.99835 34.3534C6.12206 32.6267 5.01787 30.7424 4.21893 28.5759C3.21389 25.9265 2.92391 23.0004 3.01112 19.3733C3.15557 13.1556 4.60442 9.08384 8.99835 5.32445V16.3354C7.27312 16.7798 6.49835 18.4737 6.49835 20.3394C6.49835 22.2051 7.27312 23.899 8.99835 24.3434V33.3524C8.99835 33.3524 8.18923 34.1018 7.99835 34.3534ZM10.4984 18.3374C9.39378 18.3374 8.49835 19.2337 8.49835 20.3394C8.49835 21.4451 9.39378 22.3414 10.4984 22.3414C11.6029 22.3414 12.4984 21.4451 12.4984 20.3394C12.4984 19.2337 11.6029 18.3374 10.4984 18.3374Z" fill="#1188EE"/>
</g>
<g clip-path="url(#clip1_41_7)">
<path fill-rule="evenodd" clip-rule="evenodd" d="M36.6397 1.09963C37.1612 0.72672 37.8618 0.72672 38.3834 1.09963C44.8802 5.74489 47.8255 11.3137 48.0111 19.3035C48.0968 23.1187 47.7299 26.612 46.6133 29.6297C45.4681 32.6492 43.4315 35.439 40.4332 37.7948C40.0549 38.0897 39.5585 38.1858 39.0976 38.0534C38.1793 37.7895 38.023 36.6999 37.5115 36.0208C36.9997 36.7003 36.8444 37.7893 35.9254 38.0534C35.4645 38.1858 34.9682 38.0897 34.5899 37.7948C31.5915 35.439 29.555 32.6492 28.4097 29.6297C27.2931 26.612 26.9262 23.1187 27.0119 19.3035C27.1976 11.3137 30.1428 5.74489 36.6397 1.09963ZM39.9984 34.3534C41.8746 32.6267 43.0052 30.7424 43.8041 28.5759C44.8092 25.9265 45.0991 23.0004 45.0119 19.3733C44.8672 13.1432 43.4108 9.08885 38.9984 5.32445V16.3354C40.7236 16.7798 41.4984 18.4737 41.4984 20.3394C41.4984 22.2051 40.7236 23.899 38.9984 24.3434V33.3524C38.9984 33.3524 39.8001 34.0922 39.9984 34.3534ZM34.9984 34.3534C33.1221 32.6267 32.0179 30.7424 31.2189 28.5759C30.2139 25.9265 29.9239 23.0004 30.0111 19.3733C30.1556 13.1556 31.6044 9.08384 35.9984 5.32445V16.3354C34.2731 16.7798 33.4984 18.4737 33.4984 20.3394C33.4984 22.2051 34.2731 23.899 35.9984 24.3434V33.3524C35.9984 33.3524 35.1892 34.1018 34.9984 34.3534ZM37.4984 18.3374C36.3938 18.3374 35.4984 19.2337 35.4984 20.3394C35.4984 21.4451 36.3938 22.3414 37.4984 22.3414C38.6029 22.3414 39.4984 21.4451 39.4984 20.3394C39.4984 19.2337 38.6029 18.3374 37.4984 18.3374Z" fill="#1188EE"/>
</g>
<defs>
<clipPath id="clip0_41_7">
<rect width="22" height="39" fill="white"/>
</clipPath>
<clipPath id="clip1_41_7">
<rect width="22" height="39" fill="white" transform="translate(27)"/>
</clipPath>
</defs>
</svg>

<svg xmlns="http://www.w3.org/2000/svg" fill="none" viewBox="0 0 49 39"><g clip-path="url(#a)"><path fill="#18E" fill-rule="evenodd" d="M9.64 1.1a1.499 1.499 0 0 1 1.743 0c6.497 4.645 9.443 10.214 9.628 18.203.086 3.816-.281 7.309-1.398 10.327-1.145 3.02-3.181 5.809-6.18 8.165a1.5 1.5 0 0 1-1.335.258c-.919-.264-1.075-1.353-1.587-2.032-.511.68-.667 1.768-1.586 2.032-.46.133-.957.037-1.335-.258-2.998-2.356-5.035-5.146-6.18-8.165C.293 26.612-.074 23.119.012 19.304.198 11.313 3.142 5.743 9.64 1.1Zm3.358 33.253c1.877-1.726 3.007-3.61 3.806-5.777 1.005-2.65 1.295-5.576 1.208-9.203-.145-6.23-1.601-10.284-6.014-14.049v11.011c1.726.445 2.5 2.139 2.5 4.004 0 1.866-.774 3.56-2.5 4.004v9.01s.802.74 1 1Zm-5 0c-1.876-1.726-2.98-3.61-3.78-5.777-1.004-2.65-1.294-5.576-1.207-9.203.145-6.217 1.593-10.29 5.987-14.049v11.011c-1.725.445-2.5 2.139-2.5 4.004 0 1.866.775 3.56 2.5 4.004v9.01s-.809.749-1 1Zm2.5-16.016a2.001 2.001 0 1 0 .002 4.006 2.001 2.001 0 0 0-.002-4.006Z" clip-rule="evenodd"/></g><g clip-path="url(#b)"><path fill="#18E" fill-rule="evenodd" d="M36.64 1.1a1.499 1.499 0 0 1 1.743 0c6.497 4.645 9.442 10.214 9.628 18.203.086 3.816-.281 7.309-1.398 10.327-1.145 3.02-3.181 5.809-6.18 8.165a1.5 1.5 0 0 1-1.335.258c-.919-.264-1.075-1.353-1.587-2.032-.511.68-.667 1.768-1.586 2.032-.46.133-.957.037-1.335-.258-2.999-2.356-5.035-5.146-6.18-8.165-1.117-3.018-1.484-6.511-1.398-10.326.186-7.99 3.13-13.56 9.628-18.204Zm3.358 33.253c1.877-1.726 3.007-3.61 3.806-5.777 1.005-2.65 1.295-5.576 1.208-9.203-.145-6.23-1.601-10.284-6.014-14.049v11.011c1.726.445 2.5 2.139 2.5 4.004 0 1.866-.774 3.56-2.5 4.004v9.01s.802.74 1 1Zm-5 0c-1.876-1.726-2.98-3.61-3.78-5.777-1.004-2.65-1.294-5.576-1.207-9.203.145-6.217 1.593-10.29 5.987-14.049v11.011c-1.725.445-2.5 2.139-2.5 4.004 0 1.866.775 3.56 2.5 4.004v9.01s-.809.749-1 1Zm2.5-16.016a2.001 2.001 0 1 0 .002 4.006 2.001 2.001 0 0 0-.002-4.006Z" clip-rule="evenodd"/></g><defs><clipPath id="a"><path fill="#fff" d="M0 0h22v39H0z"/></clipPath><clipPath id="b"><path fill="#fff" d="M27 0h22v39H27z"/></clipPath></defs></svg>
